svgs/light/cube.svg

<svg xmlns="http://www.w3.org/2000/svg" viewBox="0 0 512 512"><!--! Font Awesome Pro 6.3.0 by @fontawesome - https://fontawesome.com License - https://fontawesome.com/license (Commercial License) Copyright 2023 Fonticons, Inc. --><path d="M239.5 5.018C250.1 1.106 261.9 1.106 272.5 5.018L480.5 81.28C499.4 88.22 512 106.2 512 126.4V385.7C512 405.8 499.4 423.8 480.5 430.7L272.5 506.1C261.9 510.9 250.1 510.9 239.5 506.1L31.48 430.7C12.57 423.8 0 405.8 0 385.7V126.4C0 106.2 12.57 88.22 31.48 81.28L239.5 5.018zM261.5 35.06C257.1 33.76 254 33.76 250.5 35.06L44.14 110.7L256 193.1L467.9 110.7L261.5 35.06zM42.49 400.7L240 473.1V222L32 140.3V385.7C32 392.4 36.19 398.4 42.49 400.7V400.7zM272 473.1L469.5 400.7C475.8 398.4 480 392.4 480 385.7V140.3L272 222V473.1z"/></svg>

<svg xmlns="http://www.w3.org/2000/svg" viewBox="0 0 512 512"><!--! Font Awesome Pro 6.4.0 by @fontawesome - https://fontawesome.com License - https://fontawesome.com/license (Commercial License) Copyright 2023 Fonticons, Inc. --><path d="M261.5 35.1c-3.6-1.3-7.5-1.3-11 0L44.1 110.7 256 194l211.9-83.2L261.5 35.1zM32 385.7c0 6.7 4.2 12.7 10.5 15L240 473.1V222L32 140.3V385.7zm240 87.4l197.5-72.4c6.3-2.3 10.5-8.3 10.5-15V140.3L272 222v251zM239.5 5c10.7-3.9 22.4-3.9 33 0l208 76.3c18.9 6.9 31.5 24.9 31.5 45.1V385.7c0 20.1-12.6 38.1-31.5 45.1L272.5 507c-10.7 3.9-22.4 3.9-33 0l-208-76.3C12.6 423.8 0 405.8 0 385.7V126.4c0-20.1 12.6-38.1 31.5-45.1L239.5 5z"/></svg>
